X:1
T:Title
%%score { ( 1 3 ) | ( 2 4 ) }
L:1/8
M:4/4
K:Ab
V:1 treble nm="Grand Piano"
V:3 treble 
V:2 bass 
V:4 bass 
V:1
 z4 z2[Q:1/4=100] [CE]2 | [Ec]3 [DB] [CA][EG][DF][CE] | [DF]2 [DG]2 [CA]2 [Ec]2 | %3
 [EB]3 [FA] [EG]2 [=DF]2 | E6 E2 | F3 F G3 G | A2 A2 B2 c2 | [Ee]2 dB [CEA]2 [B,EG]2 | %8
[M:3/4] [CEA]6 |[M:1/4] [Ec]2 |[M:4/4] B3 =A B2 cB | A2 F2 A4 | B2 B>B A2 [Fd]2 | c4 B2 c2 | %14
 e3 d c3 B | A2 [A,EG]2 [A,DF]2 [DFB]2 | A2 G2 c3 B |[M:3/4] [CA]6 |] %18
V:2
 z4 z2 [A,,A,]2 | [A,,A,]3 [A,,A,] [A,,A,]2 [A,,A,]2 | [D,A,]2 [B,,E,]2 [A,,E,]2 [A,,A,]2 | %3
 [B,,G,]3 [B,,B,] [B,,B,]2 [B,,A,]2 | [E,G,]6 [C,A,]2 | [D,A,D]3 [D,A,D] [E,D]3 [E,D] | %6
 [F,A,C]2 [F,A,C]2 [E,G,E]2 [A,E]2 | z2 .A,2 z4 |[M:3/4] A,,6 |[M:1/4] [A,,A,]2 | %10
[M:4/4] [E,G,E]3 [E,_G,E] [E,=G,E]2 ED | [F,A,C]2 [F,A,C]2 [F,A,C]4 | %12
 [E,G,D]2 [E,G,D]>[E,G,D] [F,A,C]2 [D,A,]2 | [E,E]4- [E,G,E]2 [A,E]2 | %14
 [A,CE]3 [G,B,E] [A,E]3 [E,G,D] | [F,A,C]2 C,2 D,2 B,,2 | [E,CE]2 [E,B,E]2 [E,A,E]3 [E,G,D] | %17
[M:3/4] [A,,A,]6 |] %18
V:3
 x8 | x8 | x8 | x8 | x8 | x8 | x8 | z2 F2 z4 |[M:3/4] x6 |[M:1/4] x2 |[M:4/4] x8 | x8 | x8 | x8 | %14
 x8 | x8 | x8 |[M:3/4] x6 |] %18
V:4
 x8 | x8 | x8 | x8 | x8 | x8 | x8 | [C,A,]2 D,-[D,D] E,2 E,2 |[M:3/4] x6 |[M:1/4] x2 | %10
[M:4/4] z4 z2 [E,G,]2 | x8 | x8 | A,4 z4 | x8 | x8 | x8 |[M:3/4] x6 |] %18

